static/pay/maestro.svg

<svg width="51" height="30" viewBox="0 0 51 30" fill="none" xmlns="http://www.w3.org/2000/svg">
<path d="M25.0624 26.1203C28.0895 23.3878 29.9997 19.4204 29.9997 15.0139C29.9997 10.6063 28.0889 6.64111 25.0624 3.87839C22.4173 1.46963 18.8933 0 15.0145 0C6.73012 0 0 6.72894 0 15.0133C0 23.2999 6.73012 29.9981 15.0145 29.9981C18.8934 29.9987 22.4173 28.5302 25.0624 26.1203Z" fill="#009DDD"/>
<path d="M25.0625 26.1203C28.0896 23.3879 29.9999 19.4205 29.9999 15.0139C29.9999 10.6063 28.089 6.64114 25.0625 3.87842V26.1203Z" fill="#009DDD"/>
<path d="M35.1417 0.000610352C31.2622 0.000610352 27.7361 1.47024 25.0625 3.879C24.5343 4.37808 24.0354 4.90727 23.5638 5.46672H26.5897C27.0018 5.96463 27.3839 6.52407 27.7361 7.05224H22.4173C22.0952 7.58143 21.8011 8.11121 21.5357 8.63893H28.5879C28.8243 9.16709 29.0578 9.6979 29.2342 10.2261H20.9213C20.7444 10.7548 20.597 11.285 20.48 11.8418H29.6755C29.8806 12.841 29.9998 13.9286 29.9998 15.0145C29.9998 16.6599 29.7339 18.2767 29.2343 19.7749H20.9215C21.0963 20.303 21.3023 20.8328 21.5365 21.3616H28.5887C28.3249 21.8907 28.0595 22.4486 27.7362 22.9483H22.4174C22.7718 23.5067 23.1528 24.0353 23.5638 24.5349H26.5897C26.1204 25.0934 25.6202 25.6226 25.0625 26.1216C27.7362 28.5316 31.2622 30 35.1417 30C43.427 30 50.1265 23.3018 50.1265 15.0152C50.1257 6.7297 43.427 0.000610352 35.1417 0.000610352Z" fill="#ED1C2E"/>
<path d="M44.9531 18.246C44.9531 17.981 45.1894 17.7761 45.4532 17.7761C45.7182 17.7761 45.9231 17.9812 45.9231 18.246C45.9231 18.5114 45.7181 18.7461 45.4532 18.7461C45.1894 18.7461 44.9531 18.5114 44.9531 18.246ZM45.4532 18.6284C45.6583 18.6284 45.8054 18.452 45.8054 18.246C45.8054 18.0405 45.6581 17.8932 45.4532 17.8932C45.2472 17.8932 45.0724 18.0405 45.0724 18.246C45.0724 18.452 45.2472 18.6284 45.4532 18.6284ZM45.3943 18.452H45.2773V18.0404H45.4531C45.5108 18.0404 45.5411 18.0404 45.5712 18.07C45.6003 18.0991 45.6289 18.1277 45.6289 18.158C45.6289 18.2173 45.5998 18.2761 45.5409 18.2761L45.6289 18.4519H45.5108L45.4531 18.3046H45.3943V18.452ZM45.3943 18.2173H45.4531C45.4531 18.2173 45.4822 18.2173 45.5108 18.2173C45.5108 18.2173 45.5108 18.1871 45.5108 18.158V18.1277C45.4817 18.1277 45.4531 18.1277 45.424 18.1277H45.3938V18.2173H45.3943V18.2173Z" fill="white"/>
<path d="M13.1338 18.7462H11.2542L12.3703 12.8992L9.81483 18.7462H8.10902L7.816 12.9283L6.6999 18.7462H4.99512L6.43552 11.1367H9.37244L9.51917 15.8367L11.5785 11.1367H14.6016L13.1338 18.7462Z" fill="white"/>
<path d="M33.9951 18.6587C33.4659 18.8044 33.0838 18.8631 32.6425 18.8631C31.7032 18.8631 31.1729 18.3933 31.1729 17.5128C31.1729 17.3358 31.2031 17.1588 31.2316 16.9533L31.3487 16.3362L31.4388 15.8669L32.2901 11.1372H34.1406L33.8774 12.5463H34.8458L34.582 14.0461H33.6126L33.1427 16.6308C33.1125 16.7484 33.084 16.8368 33.084 16.8952C33.084 17.2189 33.2901 17.3644 33.7314 17.3644C33.9365 17.3644 34.1112 17.3353 34.2305 17.3061L33.9951 18.6587Z" fill="white"/>
<path d="M39.4306 12.6063C39.2833 12.5463 39.2548 12.5463 39.2256 12.5463C39.1366 12.5161 39.0783 12.5161 39.0783 12.488C39.0184 12.488 38.9602 12.488 38.8732 12.488C38.2549 12.488 37.8147 12.7524 37.2558 13.4861L37.4317 12.5463H35.7269L34.5815 18.7461H36.4621C37.1376 14.9545 37.4024 14.2796 38.3126 14.2796C38.3714 14.2796 38.461 14.3093 38.5479 14.3093L38.754 14.3676L39.4306 12.6063Z" fill="white"/>
<path d="M26.5898 14.5143C26.5898 15.2788 27.0311 15.8366 28.0302 16.2197C28.7947 16.5418 28.9123 16.6308 28.9123 16.9248C28.9123 17.3063 28.5589 17.4832 27.8247 17.4832C27.2663 17.4832 26.7365 17.3948 26.1199 17.2195L25.8848 18.6593H25.9738L26.2959 18.7467C26.4129 18.7467 26.5887 18.7763 26.795 18.7763C27.2363 18.8341 27.5891 18.8341 27.8535 18.8341C29.8221 18.8341 30.7623 18.1878 30.7623 16.7781C30.7623 15.9256 30.3803 15.4267 29.4109 15.0447C28.6168 14.7506 28.5294 14.6627 28.5294 14.3688C28.5294 14.0467 28.8525 13.8697 29.4697 13.8697C29.8219 13.8697 30.3501 13.8999 30.8201 13.9571L31.085 12.5474C30.5859 12.4606 29.8517 12.4303 29.4396 12.4303C27.325 12.4293 26.5898 13.369 26.5898 14.5143Z" fill="white"/>
<path d="M19.1866 18.7461H17.6582L17.6884 18.0987C17.2186 18.5988 16.5722 18.8335 15.7199 18.8335C14.7218 18.8335 14.0161 18.158 14.0161 17.159C14.0161 15.6597 15.2192 14.7787 17.307 14.7787C17.5109 14.7787 17.7763 14.7787 18.0703 14.809C18.1291 14.6035 18.1291 14.5144 18.1291 14.427C18.1291 14.0159 17.8048 13.8686 16.9238 13.8686C16.3946 13.8686 15.8087 13.9273 15.3966 14.0159L15.1328 14.1043L14.9558 14.1329L15.2196 12.7524C16.1611 12.5161 16.748 12.4293 17.4542 12.4293C19.0688 12.4293 19.8922 13.0455 19.8922 14.2203C19.8922 14.544 19.8631 14.7792 19.746 15.4552L19.364 17.6591L19.3052 18.0405L19.2453 18.3648L19.2162 18.5693L19.1866 18.7461ZM17.8352 15.9834C17.6279 15.9543 17.5411 15.9543 17.4241 15.9543C16.3655 15.9543 15.8374 16.2775 15.8374 16.8952C15.8374 17.2766 16.0715 17.5415 16.4826 17.5415C17.2483 17.5415 17.8055 16.8952 17.8352 15.9834Z" fill="white"/>
<path d="M25.3261 18.5988C24.6809 18.7752 24.0637 18.8626 23.4163 18.8626C21.3329 18.8626 20.2437 17.8926 20.2437 16.0712C20.2437 13.9553 21.6253 12.3984 23.5059 12.3984C25.0331 12.3984 26.0048 13.28 26.0048 14.6314C26.0048 15.1006 25.9449 15.5436 25.7988 16.1598H22.0655C22.0655 16.2768 22.0655 16.3059 22.0655 16.3658C22.0655 17.071 22.5947 17.4524 23.6819 17.4524C24.3578 17.4524 24.9745 17.3354 25.6202 17.0716L25.3261 18.5988ZM24.3281 14.927C24.3281 14.809 24.3281 14.6907 24.3281 14.6033C24.3281 14.1042 24.0038 13.8092 23.4466 13.8092C22.8585 13.8092 22.4474 14.2203 22.2699 14.927H24.3281V14.927Z" fill="white"/>
<path d="M45.2472 15.925C44.9531 17.9804 43.5137 18.8916 41.6029 18.8916C39.5183 18.8916 38.667 17.6292 38.667 16.0427C38.667 13.8681 40.1052 12.3682 42.3381 12.3682C44.2776 12.3682 45.3059 13.6025 45.3059 15.16C45.3065 15.5442 45.3065 15.5728 45.2472 15.925ZM43.3087 15.1309C43.3087 14.4846 43.0437 13.8988 42.2816 13.8988C41.3391 13.8988 40.7522 15.0138 40.7522 16.0135C40.7522 16.8367 41.1643 17.3945 41.8107 17.3945C42.2218 17.3945 43.1034 16.8367 43.2501 15.8964C43.3087 15.6602 43.3087 15.3969 43.3087 15.1309Z" fill="white"/>
</svg>

<svg width="51" height="30" fill="none" xmlns="http://www.w3.org/2000/svg"><path d="M25.062 26.12A14.931 14.931 0 0030 15.014c0-4.408-1.911-8.373-4.938-11.136A14.866 14.866 0 0015.014 0C6.73 0 0 6.729 0 15.013 0 23.3 6.73 29.998 15.014 29.998c3.88 0 7.403-1.468 10.048-3.878z" fill="#009DDD"/><path d="M25.063 26.12A14.93 14.93 0 0030 15.014c0-4.408-1.911-8.373-4.938-11.136V26.12z" fill="#009DDD"/><path d="M35.142 0c-3.88 0-7.406 1.47-10.08 3.879-.528.5-1.027 1.028-1.498 1.588h3.026c.412.498.794 1.057 1.146 1.585h-5.319c-.322.53-.616 1.06-.881 1.587h7.052c.236.528.47 1.059.646 1.587h-8.313a14.356 14.356 0 00-.441 1.616h9.195c.206.999.325 2.087.325 3.172 0 1.646-.266 3.263-.766 4.76h-8.313c.175.529.381 1.059.616 1.588h7.052c-.264.529-.53 1.087-.853 1.586h-5.319c.355.559.736 1.087 1.147 1.587h3.026c-.47.558-.97 1.088-1.527 1.587A14.993 14.993 0 0035.142 30c8.285 0 14.984-6.698 14.984-14.985C50.127 6.73 43.428.001 35.142.001z" fill="#ED1C2E"/><path d="M44.953 18.246c0-.265.236-.47.5-.47.265 0 .47.205.47.47s-.205.5-.47.5a.516.516 0 01-.5-.5zm.5.382c.205 0 .352-.176.352-.382a.34.34 0 00-.352-.353c-.206 0-.38.148-.38.353 0 .206.174.382.38.382zm-.059-.176h-.117v-.412h.176c.058 0 .088 0 .118.03s.058.058.058.088c0 .06-.03.118-.088.118l.088.176h-.118l-.058-.147h-.059v.147zm0-.235H45.511v-.089H45.394v.09zM13.134 18.746h-1.88L12.37 12.9l-2.555 5.847H8.109l-.293-5.818L6.7 18.746H4.995l1.44-7.61h2.937l.147 4.7 2.06-4.7h3.023l-1.468 7.61zM33.995 18.659c-.53.145-.911.204-1.352.204-.94 0-1.47-.47-1.47-1.35 0-.177.03-.354.059-.56l.117-.617.09-.47.851-4.729h1.85l-.263 1.41h.969l-.264 1.5h-.97l-.47 2.584c-.03.117-.058.206-.058.264 0 .324.206.47.647.47.206 0 .38-.03.5-.059l-.236 1.353zM39.43 12.606c-.147-.06-.175-.06-.204-.06-.09-.03-.148-.03-.148-.058h-.205c-.618 0-1.058.264-1.617.998l.176-.94h-1.705l-1.145 6.2h1.88c.676-3.791.94-4.466 1.85-4.466.06 0 .149.03.236.03l.206.058.677-1.762zM26.59 14.514c0 .765.441 1.323 1.44 1.706.765.322.882.41.882.705 0 .381-.353.558-1.087.558-.559 0-1.088-.088-1.705-.264l-.235 1.44h.089l.322.088c.117 0 .293.03.499.03.441.057.794.057 1.058.057 1.97 0 2.91-.646 2.91-2.056 0-.852-.383-1.351-1.352-1.733-.794-.294-.882-.382-.882-.676 0-.322.323-.5.94-.5.353 0 .881.03 1.351.088l.265-1.41c-.5-.086-1.233-.117-1.645-.117-2.115 0-2.85.939-2.85 2.084zM19.187 18.746h-1.529l.03-.647c-.47.5-1.116.735-1.968.735-.998 0-1.704-.676-1.704-1.675 0-1.5 1.203-2.38 3.291-2.38.204 0 .47 0 .763.03.06-.205.06-.295.06-.382 0-.411-.325-.558-1.206-.558-.53 0-1.115.058-1.527.147l-.264.088-.177.029.264-1.38c.941-.237 1.528-.324 2.234-.324 1.615 0 2.438.617 2.438 1.791 0 .324-.029.56-.146 1.235l-.382 2.204-.059.382-.06.324-.029.204-.03.177zm-1.352-2.763c-.207-.029-.294-.029-.41-.029-1.06 0-1.588.323-1.588.941 0 .382.235.646.646.646.765 0 1.322-.646 1.352-1.558zM25.326 18.599a7.11 7.11 0 01-1.91.264c-2.083 0-3.172-.97-3.172-2.792 0-2.116 1.381-3.673 3.262-3.673 1.527 0 2.499.882 2.499 2.233 0 .47-.06.913-.206 1.529h-3.733v.206c0 .705.529 1.086 1.616 1.086.676 0 1.293-.117 1.938-.38l-.294 1.527zm-.998-3.672v-.324c0-.499-.324-.794-.881-.794-.588 0-1 .411-1.177 1.118h2.058zM45.247 15.925c-.294 2.055-1.733 2.967-3.644 2.967-2.085 0-2.936-1.263-2.936-2.85 0-2.174 1.438-3.674 3.671-3.674 1.94 0 2.968 1.234 2.968 2.792 0 .384 0 .413-.059.765zm-1.938-.794c0-.646-.265-1.232-1.027-1.232-.943 0-1.53 1.115-1.53 2.115 0 .823.412 1.38 1.059 1.38.41 0 1.292-.557 1.44-1.498.058-.236.058-.5.058-.765z" fill="#fff"/></svg>
